Simply-Green-Circles/scalable/apps/wordpress.svg

<svg xmlns="http://www.w3.org/2000/svg" width="48" height="48" viewBox="0 0 12.7 12.7"><path d="M6.34.07a6.29 6.29 0 0 0-6.29 6.3 6.29 6.29 0 0 0 6.3 6.28 6.29 6.29 0 0 0 6.28-6.29A6.29 6.29 0 0 0 6.34.07zM6.32 1l.01.01a5.4 5.4 0 0 1 5.4 5.4 5.4 5.4 0 0 1-5.4 5.41 5.4 5.4 0 0 1-5.41-5.4A5.4 5.4 0 0 1 6.32 1zm.03.85a4.5 4.5 0 0 0-4.5 4.5 4.5 4.5 0 0 0 4.5 4.5 4.5 4.5 0 0 0 4.5-4.5 4.5 4.5 0 0 0-4.5-4.5zm0 .27a4.23 4.23 0 0 1 3.07 1.32h-.24c-.42 0-.72.36-.72.75 0 .35.2.55.42.9.17.28.36.65.36 1.18 0 .36-.14.79-.33 1.38l-.43 1.42L6.94 4.5l.6-.01c.22-.03.2-.55-.03-.54 0 0-.8.06-1.25.06-.42 0-1.3-.06-1.3-.06-.24-.01-.27.53-.04.54l.64.01.66 1.8-.93 2.8-1.56-4.57.62-.04c.23-.03.2-.52-.02-.51 0 0-.83.05-1.28.05h-.24a4.23 4.23 0 0 1 3.54-1.91zm3.7 2.17a4.23 4.23 0 0 1 .53 2.06 4.23 4.23 0 0 1-2 3.6L9.8 6.4c.25-.6.25-1.1.25-1.53V4.3zm-7.53.27l-.07.18L4.4 10.1a4.23 4.23 0 0 0 .8.32l1.23-3.56 1.27 3.5.45-.18a4.23 4.23 0 0 1-.45.18 4.23 4.23 0 0 1-1.35.22 4.23 4.23 0 0 1-1.15-.16 4.23 4.23 0 0 1-.4-.14 4.23 4.23 0 0 1-.4-.18 4.23 4.23 0 0 1-2.28-3.75 4.23 4.23 0 0 1 .4-1.79zm5.85 5.5a4.23 4.23 0 0 1-.22.11l.22-.1z" fill="#2ca02c"/></svg>

<?xml version="1.0" encoding="UTF-8" standalone="no"?>
<svg
   xmlns:dc="http://purl.org/dc/elements/1.1/"
   xmlns:cc="http://creativecommons.org/ns#"
   xmlns:rdf="http://www.w3.org/1999/02/22-rdf-syntax-ns#"
   xmlns:svg="http://www.w3.org/2000/svg"
   xmlns="http://www.w3.org/2000/svg"
   xmlns:sodipodi="http://sodipodi.sourceforge.net/DTD/sodipodi-0.dtd"
   xmlns:inkscape="http://www.inkscape.org/namespaces/inkscape"
   width="48"
   height="48"
   viewBox="0 0 12.7 12.7"
   version="1.1"
   id="svg4"
   sodipodi:docname="wordpress.svg"
   inkscape:version="0.92.4 (5da689c313, 2019-01-14)">
  <metadata
     id="metadata10">
    <rdf:RDF>
      <cc:Work
         rdf:about="">
        <dc:format>image/svg+xml</dc:format>
        <dc:type
           rdf:resource="http://purl.org/dc/dcmitype/StillImage" />
        <dc:title></dc:title>
      </cc:Work>
    </rdf:RDF>
  </metadata>
  <defs
     id="defs8" />
  <sodipodi:namedview
     pagecolor="#ffffff"
     bordercolor="#666666"
     borderopacity="1"
     objecttolerance="10"
     gridtolerance="10"
     guidetolerance="10"
     inkscape:pageopacity="0"
     inkscape:pageshadow="2"
     inkscape:window-width="1087"
     inkscape:window-height="480"
     id="namedview6"
     showgrid="false"
     inkscape:zoom="4.9166667"
     inkscape:cx="2.1355932"
     inkscape:cy="24"
     inkscape:window-x="0"
     inkscape:window-y="25"
     inkscape:window-maximized="0"
     inkscape:current-layer="svg4" />
  <path
     d="M 6.34,0.07 A 6.29,6.29 0 0 0 0.05,6.37 6.29,6.29 0 0 0 6.35,12.65 6.29,6.29 0 0 0 12.63,6.36 6.29,6.29 0 0 0 6.34,0.07 Z M 6.32,1 6.33,1.01 a 5.4,5.4 0 0 1 5.4,5.4 5.4,5.4 0 0 1 -5.4,5.41 A 5.4,5.4 0 0 1 0.92,6.42 5.4,5.4 0 0 1 6.32,1 Z m 0.03,0.85 a 4.5,4.5 0 0 0 -4.5,4.5 4.5,4.5 0 0 0 4.5,4.5 4.5,4.5 0 0 0 4.5,-4.5 4.5,4.5 0 0 0 -4.5,-4.5 z m 0,0.27 A 4.23,4.23 0 0 1 9.42,3.44 H 9.18 c -0.42,0 -0.72,0.36 -0.72,0.75 0,0.35 0.2,0.55 0.42,0.9 0.17,0.28 0.36,0.65 0.36,1.18 0,0.36 -0.14,0.79 -0.33,1.38 L 8.48,9.07 6.94,4.5 7.54,4.49 C 7.76,4.46 7.74,3.94 7.51,3.95 c 0,0 -0.8,0.06 -1.25,0.06 C 5.84,4.01 4.96,3.95 4.96,3.95 4.72,3.94 4.69,4.48 4.92,4.49 L 5.56,4.5 6.22,6.3 5.29,9.1 3.73,4.53 4.35,4.49 C 4.58,4.46 4.55,3.97 4.33,3.98 c 0,0 -0.83,0.05 -1.28,0.05 H 2.81 A 4.23,4.23 0 0 1 6.35,2.12 Z m 3.7,2.17 a 4.23,4.23 0 0 1 0.53,2.06 4.23,4.23 0 0 1 -2,3.6 L 9.8,6.4 C 10.05,5.8 10.05,5.3 10.05,4.87 V 4.3 Z M 2.52,4.56 2.45,4.74 4.4,10.1 a 4.23,4.23 0 0 0 0.8,0.32 L 6.43,6.86 7.7,10.36 8.15,10.18 A 4.23,4.23 0 0 1 7.7,10.36 4.23,4.23 0 0 1 6.35,10.58 4.23,4.23 0 0 1 5.2,10.42 4.23,4.23 0 0 1 4.8,10.28 4.23,4.23 0 0 1 4.4,10.1 4.23,4.23 0 0 1 2.12,6.35 4.23,4.23 0 0 1 2.52,4.56 Z m 5.85,5.5 a 4.23,4.23 0 0 1 -0.22,0.11 l 0.22,-0.1 z"
     id="path2"
     inkscape:connector-curvature="0"
     style="fill:#2ca02c" />
</svg>
